X:1
T:Ballad for Trane
C:Kenny Werner
Z:All Rights Reserved
L:1/8
M:4/4
K:Eb
V:1 treble 
%%MIDI program 0
V:1
"Ebmaj7" d2 B2 GA/B/ c2 |"Ab/Eb" A<D- DE/F/ G3 F | D<"Ebmaj7"B,- B,2 c2 B2 |"Abmaj7/Eb" FC D6 | %4
"G7" z2 (3z C D B,2 F>G |"Cm7" D4"C7b9" =E<c- c>G |"Fm7" G/B/A A4 z2 |"Db7#11" z4 z (3F/G/A/ BF- | %8
"Ebmaj7/Bb" F8- |"Ab/Bb" F4 F2 C2 | D"Ebmaj7"E/F/ G2 z A A2- |"Abmaj7/Eb" A>G ^F/G/B- B4 | %12
"Bmaj7/Db" z2 z B- B3 A |"Gbmaj7" _G/_D/ z/ D/- D2"Abmaj7/Bb" G>F E/C/D/G/ | %14
"Ebmaj7" B,2 z2 B,3 _D |"Gbmaj7/Ab" _GBAC A/E/F/A/ =G/B,/ z/ B,/- |"G7#9" B,6 z2 | %17
"Cm7" z2 (3EFG B<=A _A/e/G- |"B+7" G4 z2 z E |"Abmaj7/Bb" d2 B2 GA/B/ c2 | A"Ebmaj7"D- DD/B/ G4- | %21
 G8 |] %22

